X: 936
T: Jack-Of-All-Trades.
B:O'Neill's 936
N:"collected by J. O'Neill."
Z:Transcribed by Tom Keays (htkeays@mailbox.syr.edu)
Z:abc 1.6
M:6/8
R:Jig
L:1/8
K:A
E | ABA Ace | a2 A A2 B | cde dcB | ABA GFE |
ABA Ace | a2 A A2 B | cde dcB | cAA A2 :|
|| E | A3 cBA | cee e2 e | a3 f2 b | gee e2 e |
fga ecA | gbe' c'ae | fga c2 B | cAA A2 :|


